X: 21563
T: Kilfenora, The
R: reel
M: 4/4
K: Dmajor
|:d3A BAFB|A2FA GFEF|D2FA BAFB|ABde fdec|
d3A BAFB|A2FA GFEF|D2FA BAFB|ABde fdd2:|
|:(3fgf df gfed|cdef g2ag|(3fgf df g2fg|afge fdde|
faaf gfed|cdef g2fg|afge fdec|d2eg fdec:|

